Adwaita++-Dark/actions/22/kdenlive-insert-rect.svg

<svg fill="none" height="22" viewBox="0 0 22 22" width="22" xmlns="http://www.w3.org/2000/svg">
  <g clip-rule="evenodd" fill="#e6ddff" fill-rule="evenodd">
    <path d="m19 7c0-1.10457-.8954-2-2-2h-12c-1.10457 0-2 .89543-2 2v8c0 1.1046.89543 2 2 2h6 1v-7h7z"/>
    <path d="m14.5 14.5v1.5h2v-1.5h1.5v-2h-1.5v-1.5h-2v1.5h-1.5v2z"/>
  </g>
</svg>

<svg xmlns="http://www.w3.org/2000/svg" fill="none" width="22" height="22" viewBox="0 0 22 22">
 <path fill="#E6DDFF" fill-rule="evenodd" d="M19 7C19 5.89543 18.1046 5 17 5H5C3.89543 5 3 5.89543 3 7V15C3 16.1046 3.89543 17 5 17H11H12V10H19V7Z" clip-rule="evenodd"/>
 <path fill="#E6DDFF" fill-rule="evenodd" d="M14.5 14.5V16H16.5V14.5H18V12.5H16.5V11H14.5V12.5H13V14.5H14.5Z" clip-rule="evenodd"/>
</svg>
